static/img/kroki/e249d979b85336cd6d063cb7c8209ffa.svg

<?xml version="1.0" encoding="us-ascii" standalone="no"?><svg xmlns="http://www.w3.org/2000/svg" xmlns:xlink="http://www.w3.org/1999/xlink" contentStyleType="text/css" height="252px" preserveAspectRatio="none" style="width:262px;height:252px;" version="1.1" viewBox="0 0 262 252" width="262px" zoomAndPan="magnify"><defs/><g><!--class gcp_instance--><g id="elem_gcp_instance"><rect codeLine="22" fill="#3D176E" height="39.7891" id="gcp_instance" rx="2.5" ry="2.5" style="stroke:#000D19;stroke-width:0.5;" width="149" x="7" y="106.79"/><ellipse cx="22" cy="126.6845" fill="#ADD1B2" rx="11" ry="11" style="stroke:#181818;stroke-width:1.0;"/><path d="M24.9688,132.3252 Q24.3906,132.622 23.75,132.7627 Q23.1094,132.9189 22.4063,132.9189 Q19.9063,132.9189 18.5781,131.2783 Q17.2656,129.622 17.2656,126.497 Q17.2656,123.372 18.5781,121.7158 Q19.9063,120.0595 22.4063,120.0595 Q23.1094,120.0595 23.75,120.2158 Q24.4063,120.372 24.9688,120.6689 L24.9688,123.3877 Q24.3438,122.8095 23.75,122.5439 Q23.1563,122.2627 22.5313,122.2627 Q21.1875,122.2627 20.5,123.3408 Q19.8125,124.4033 19.8125,126.497 Q19.8125,128.5908 20.5,129.6689 Q21.1875,130.7314 22.5313,130.7314 Q23.1563,130.7314 23.75,130.4658 Q24.3438,130.1845 24.9688,129.6064 L24.9688,132.3252 Z " fill="#000000"/><text fill="#D9B8FF" font-family="Helvetica" font-size="17" lengthAdjust="spacing" textLength="107" x="41" y="132.5698">gcp_instance</text></g><!--class gcp_packet_mirroring--><g id="elem_gcp_packet_mirroring"><rect codeLine="24" fill="#3D176E" height="39.7891" id="gcp_packet_mirroring" rx="2.5" ry="2.5" style="stroke:#000D19;stroke-width:0.5;" width="222" x="33.5" y="206.58"/><ellipse cx="48.5" cy="226.4745" fill="#ADD1B2" rx="11" ry="11" style="stroke:#181818;stroke-width:1.0;"/><path d="M51.4688,232.1152 Q50.8906,232.412 50.25,232.5527 Q49.6094,232.7089 48.9063,232.7089 Q46.4063,232.7089 45.0781,231.0683 Q43.7656,229.412 43.7656,226.287 Q43.7656,223.162 45.0781,221.5058 Q46.4063,219.8495 48.9063,219.8495 Q49.6094,219.8495 50.25,220.0058 Q50.9063,220.162 51.4688,220.4589 L51.4688,223.1777 Q50.8438,222.5995 50.25,222.3339 Q49.6563,222.0527 49.0313,222.0527 Q47.6875,222.0527 47,223.1308 Q46.3125,224.1933 46.3125,226.287 Q46.3125,228.3808 47,229.4589 Q47.6875,230.5214 49.0313,230.5214 Q49.6563,230.5214 50.25,230.2558 Q50.8438,229.9745 51.4688,229.3964 L51.4688,232.1152 Z " fill="#000000"/><text fill="#D9B8FF" font-family="Helvetica" font-size="17" lengthAdjust="spacing" textLength="180" x="67.5" y="232.3598">gcp_packet_mirroring</text></g><!--class gcp_subnetwork--><g id="elem_gcp_subnetwork"><rect codeLine="26" fill="#3D176E" height="39.7891" id="gcp_subnetwork" rx="2.5" ry="2.5" style="stroke:#000D19;stroke-width:0.5;" width="178" x="55.5" y="7"/><ellipse cx="70.5" cy="26.8945" fill="#ADD1B2" rx="11" ry="11" style="stroke:#181818;stroke-width:1.0;"/><path d="M73.4688,32.5352 Q72.8906,32.832 72.25,32.9727 Q71.6094,33.1289 70.9063,33.1289 Q68.4063,33.1289 67.0781,31.4883 Q65.7656,29.832 65.7656,26.707 Q65.7656,23.582 67.0781,21.9258 Q68.4063,20.2695 70.9063,20.2695 Q71.6094,20.2695 72.25,20.4258 Q72.9063,20.582 73.4688,20.8789 L73.4688,23.5977 Q72.8438,23.0195 72.25,22.7539 Q71.6563,22.4727 71.0313,22.4727 Q69.6875,22.4727 69,23.5508 Q68.3125,24.6133 68.3125,26.707 Q68.3125,28.8008 69,29.8789 Q69.6875,30.9414 71.0313,30.9414 Q71.6563,30.9414 72.25,30.6758 Q72.8438,30.3945 73.4688,29.8164 L73.4688,32.5352 Z " fill="#000000"/><text fill="#D9B8FF" font-family="Helvetica" font-size="17" lengthAdjust="spacing" textLength="136" x="89.5" y="32.7798">gcp_subnetwork</text></g><!--link gcp_instance to gcp_packet_mirroring--><g id="link_gcp_instance_gcp_packet_mirroring"><path codeLine="28" d="M93.95,147.01 C103.96,162.54 118.08,184.46 128.85,201.18 " fill="none" id="gcp_instance-to-gcp_packet_mirroring" style="stroke:#1A83AF;stroke-width:2.0;"/><polygon fill="#1A83AF" points="132.08,205.2,130.5545,195.47,129.3661,201.0006,123.8355,199.8122,132.08,205.2" style="stroke:#1A83AF;stroke-width:2.0;"/></g><!--link gcp_subnetwork to gcp_instance--><g id="link_gcp_subnetwork_gcp_instance"><path codeLine="29" d="M132.05,47.22 C122.04,62.75 107.92,84.67 97.15,101.4 " fill="none" id="gcp_subnetwork-to-gcp_instance" style="stroke:#1A83AF;stroke-width:2.0;"/><polygon fill="#1A83AF" points="93.92,105.41,102.1515,100.0024,96.6238,101.2041,95.4221,95.6764,93.92,105.41" style="stroke:#1A83AF;stroke-width:2.0;"/></g><!--link gcp_subnetwork to gcp_packet_mirroring--><g id="link_gcp_subnetwork_gcp_packet_mirroring"><path codeLine="30" d="M153.75,47.14 C160.74,62.79 169.74,85.67 173.5,106.79 C176.6,124.2 176.6,129.17 173.5,146.58 C170.15,165.39 162.64,185.6 156.11,200.85 " fill="none" id="gcp_subnetwork-to-gcp_packet_mirroring" style="stroke:#1A83AF;stroke-width:2.0;"/><polygon fill="#1A83AF" points="153.75,205.23,161.0144,198.5795,155.7488,200.6469,153.6815,195.3814,153.75,205.23" style="stroke:#1A83AF;stroke-width:2.0;"/></g><!--SRC=[XP9FQyCm3CNl_HI6dWlDmfRaCaW3PRkKiUusHd5YkJL9x22h2ztOTr_IhiDr-kUgzzFJaz162M1GDxHZDTGve1tPKkc68wzPYcZQp5G6sLXABiF85-T6qqrWmMjWJr1z0gc2-yJRHXMb1clPdIFDU56kqMorEDWJScqx2JGvL5PnQrCYLFcMm0aZaZoMqYTzqt4eWkW11fX10VY7JATJ4IG-SdFKrRt_YQNw0XQuHriOWa7CmOWzTJLbJpWX1uiUzOiPNxWGIg_PlLDxFMH23NXINswuC6rFIrvPTumbG32qQo0RR0L9B6Hq5dw-11VzvTYwQ5PAM-Aw0FOz-d7AJTS8jAfLzrhO9pgLxJRNGAt1SY-S64tUnq4QX-dyO_9urclaEGmQZbOtGT_v5m00]--></g></svg>

<svg xmlns="http://www.w3.org/2000/svg" width="262" height="252" preserveAspectRatio="none" style="width:262px;height:252px"><rect width="149" height="39.789" x="7" y="106.79" fill="#3D176E" rx="2.5" ry="2.5" style="stroke:#000d19;stroke-width:.5"/><circle cx="22" cy="126.684" r="11" fill="#ADD1B2" style="stroke:#181818;stroke-width:1"/><path d="M24.969 132.325q-.578.297-1.219.438-.64.156-1.344.156-2.5 0-3.828-1.64-1.312-1.657-1.312-4.782t1.312-4.781q1.328-1.656 3.828-1.656.703 0 1.344.156.656.156 1.219.453v2.719q-.625-.579-1.219-.844-.594-.281-1.219-.281-1.343 0-2.031 1.078-.688 1.062-.688 3.156 0 2.094.688 3.172.688 1.062 2.031 1.062.625 0 1.219-.265.594-.281 1.219-.86v2.72Z"/><text x="41" y="132.57" fill="#D9B8FF" font-family="Helvetica" font-size="17" textLength="107">gcp_instance</text><rect width="222" height="39.789" x="33.5" y="206.58" fill="#3D176E" rx="2.5" ry="2.5" style="stroke:#000d19;stroke-width:.5"/><circle cx="48.5" cy="226.475" r="11" fill="#ADD1B2" style="stroke:#181818;stroke-width:1"/><path d="M51.469 232.115q-.578.297-1.219.438-.64.156-1.344.156-2.5 0-3.828-1.64-1.312-1.657-1.312-4.782t1.312-4.781q1.328-1.656 3.828-1.656.703 0 1.344.156.656.156 1.219.453v2.719q-.625-.578-1.219-.844-.594-.281-1.219-.281-1.343 0-2.031 1.078-.688 1.062-.688 3.156 0 2.094.688 3.172.688 1.062 2.031 1.062.625 0 1.219-.265.594-.281 1.219-.86v2.72Z"/><text x="67.5" y="232.36" fill="#D9B8FF" font-family="Helvetica" font-size="17" textLength="180">gcp_packet_mirroring</text><rect width="178" height="39.789" x="55.5" y="7" fill="#3D176E" rx="2.5" ry="2.5" style="stroke:#000d19;stroke-width:.5"/><circle cx="70.5" cy="26.895" r="11" fill="#ADD1B2" style="stroke:#181818;stroke-width:1"/><path d="M73.469 32.535q-.578.297-1.219.438-.64.156-1.344.156-2.5 0-3.828-1.64-1.312-1.657-1.312-4.782t1.312-4.781q1.328-1.656 3.828-1.656.703 0 1.344.156.656.156 1.219.453v2.719q-.625-.578-1.219-.844-.594-.281-1.219-.281-1.344 0-2.031 1.078-.688 1.062-.688 3.156 0 2.094.688 3.172.688 1.062 2.031 1.062.625 0 1.219-.265.594-.281 1.219-.86v2.72Z"/><text x="89.5" y="32.78" fill="#D9B8FF" font-family="Helvetica" font-size="17" textLength="136">gcp_subnetwork</text><path fill="none" d="M93.95 147.01c10.01 15.53 24.13 37.45 34.9 54.17" style="stroke:#1a83af;stroke-width:2"/><path fill="#1A83AF" d="m132.08 205.2-1.526-9.73-1.188 5.53-5.53-1.188 8.244 5.388z" style="stroke:#1a83af;stroke-width:2"/><path fill="none" d="M132.05 47.22c-10.01 15.53-24.13 37.45-34.9 54.18" style="stroke:#1a83af;stroke-width:2"/><path fill="#1A83AF" d="m93.92 105.41 8.231-5.408-5.527 1.202-1.202-5.528-1.502 9.734z" style="stroke:#1a83af;stroke-width:2"/><path fill="none" d="M153.75 47.14c6.99 15.65 15.99 38.53 19.75 59.65 3.1 17.41 3.1 22.38 0 39.79-3.35 18.81-10.86 39.02-17.39 54.27" style="stroke:#1a83af;stroke-width:2"/><path fill="#1A83AF" d="m153.75 205.23 7.264-6.65-5.265 2.067-2.067-5.266.068 9.849z" style="stroke:#1a83af;stroke-width:2"/></svg>
